assets/clone.svg

<svg fill="none" height="40" viewBox="0 0 40 40" width="40" xmlns="http://www.w3.org/2000/svg"><rect fill="#f55d3e" height="40" rx="20" width="40"/><path d="m10.6875 26.9844c0 1.2841 1.044 2.3281 2.3281 2.3281h8.1485c1.2841 0 2.3281-1.044 2.3281-2.3281v-2.3282h-4.6563c-1.9279 0-3.4921-1.5642-3.4921-3.4921v-4.6563h-2.3282c-1.2841 0-2.3281 1.044-2.3281 2.3281zm8.1484-3.4922h8.1485c1.2841 0 2.3281-1.044 2.3281-2.3281v-8.1485c0-1.2841-1.044-2.3281-2.3281-2.3281h-8.1485c-1.2841 0-2.3281 1.044-2.3281 2.3281v8.1485c0 1.2841 1.044 2.3281 2.3281 2.3281z" fill="#fff"/></svg>

<svg width="40" height="40" viewBox="0 0 40 40" fill="none" xmlns="http://www.w3.org/2000/svg">
<rect width="40" height="40" rx="20" fill="#F55D3E"/>
<path d="M10.6875 26.9844C10.6875 28.2685 11.7315 29.3125 13.0156 29.3125H21.1641C22.4482 29.3125 23.4922 28.2685 23.4922 26.9844V24.6562H18.8359C16.908 24.6562 15.3438 23.092 15.3438 21.1641V16.5078H13.0156C11.7315 16.5078 10.6875 17.5518 10.6875 18.8359V26.9844ZM18.8359 23.4922H26.9844C28.2685 23.4922 29.3125 22.4482 29.3125 21.1641V13.0156C29.3125 11.7315 28.2685 10.6875 26.9844 10.6875H18.8359C17.5518 10.6875 16.5078 11.7315 16.5078 13.0156V21.1641C16.5078 22.4482 17.5518 23.4922 18.8359 23.4922Z" fill="white"/>
</svg>
